www/assets/icons/shortcut.svg

<svg xmlns="http://www.w3.org/2000/svg" width="24" height="24" viewBox="0 0 24 24" fill='currentColor'><path d="m21 11-6-6v5H8c-2.76 0-5 2.24-5 5v4h2v-4c0-1.65 1.35-3 3-3h7v5z"/></svg>

<svg width="24" height="24" viewBox="0 0 24 24" xmlns="http://www.w3.org/2000/svg" fill='currentColor'><path d="M21 11L15 5V10H8C5.24 10 3 12.24 3 15V19H5V15C5 13.35 6.35 12 8 12H15V17L21 11Z"/></svg>
